X: 556
T:Tam Lin
T:The howling wind
R:Reel
S:1 Session in Sligo 1991
Z:1 Transcription:?, Chords:Mike Long
S:2 Paddy O'Brien Tune Collection
S:2 ricke~11.abc
Z:2 Transcription:?, Chords:Mike Long
S:3 King Street Session Tunebook
M:C|
L:1/8
K:F
|:G,|"Dm"A,2DA, FA,DA,|"Bb"B,2DB, FB,DB,|"C"C2EC GCEC|"Bb"FEDC "C"A,DDC|
"Dm"A,2DA, FA,DA,|"Bb"B,2DB, FB,DB,|"C"C2EC GCEC|[1 "Dm"FEDC A,DD:|[2 "Dm"FEDC A,DD2 :|
|:"Dm"dA~A2 FADA|dA~A2 FADA|"C"cG~G2 EG~G2|"Am"cG~G2 cdec|
"Dm"dA~A2 FADA|"(F)"dA~A2 FADA,|"Bb"B,2B,A, B,CDE|[1 "C"FDEC A,D D2:|[2 "C"FDEC "(Dm)"A,DDG,|]

%%scale 0.75

